packages/kaspersky-hexa-ui-icons/src/iconsSVGs/48/Ok.svg

<svg xmlns="http://www.w3.org/2000/svg" width="48" height="48" fill="none" viewBox="0 0 48 48"><path fill="#1e856f" d="m34.7071 18.7071-1.4142-1.4142L22 28.5858l-5.2929-5.2929-1.4142 1.4142L22 31.4142z"/><path fill="#1e856f" fill-rule="evenodd" d="M24 48C10.7452 48 0 37.2548 0 24S10.7452 0 24 0s24 10.7452 24 24-10.7452 24-24 24m0-2c12.1503 0 22-9.8497 22-22S36.1503 2 24 2 2 11.8497 2 24s9.8497 22 22 22" clip-rule="evenodd"/></svg>

<svg width="48" height="48" viewBox="0 0 48 48" fill="none" xmlns="http://www.w3.org/2000/svg">
<path d="M34.7071 18.7071L33.2929 17.2929L22 28.5858L16.7071 23.2929L15.2929 24.7071L22 31.4142L34.7071 18.7071Z" fill="#1E856F"/>
<path fill-rule="evenodd" clip-rule="evenodd" d="M24 48C10.7452 48 0 37.2548 0 24C0 10.7452 10.7452 0 24 0C37.2548 0 48 10.7452 48 24C48 37.2548 37.2548 48 24 48ZM24 46C36.1503 46 46 36.1503 46 24C46 11.8497 36.1503 2 24 2C11.8497 2 2 11.8497 2 24C2 36.1503 11.8497 46 24 46Z" fill="#1E856F"/>
</svg>
